icons/qappmenu-settings.svg

<?xml version="1.0" encoding="UTF-8"?>
<svg width="17px" height="17px" viewBox="0 0 17 17" version="1.1" xmlns="http://www.w3.org/2000/svg" xmlns:xlink="http://www.w3.org/1999/xlink">
    <title>Fill 1</title>
    <g id="PROTOTYPE-—-Valentina" stroke="none" stroke-width="1" fill="none" fill-rule="evenodd">
        <g id="valentina---1st-release-(2)" transform="translate(-15.000000, -142.000000)" fill="#9B9B9B">
            <path d="M23.3152174,154.195652 C21.2826087,154.195652 19.6195652,152.533635 19.6195652,150.5 C19.6195652,148.467391 21.2826087,146.804348 23.3152174,146.804348 C25.3478261,146.804348 27.0108696,148.467391 27.0108696,150.5 C27.0108696,152.533635 25.3478261,154.195652 23.3152174,154.195652 L23.3152174,154.195652 Z M29.5898961,151.332292 C29.6253128,151.067552 29.6430211,150.792188 29.6430211,150.5 C29.6430211,150.217552 29.6253128,149.933333 29.581042,149.667708 L31.3784378,148.26875 C31.5378128,148.144792 31.5820836,147.905729 31.4846878,147.729531 L29.7846878,144.789062 C29.6784378,144.594271 29.4570836,144.532292 29.262292,144.594271 L27.1461461,145.444271 C26.7034378,145.108698 26.234167,144.824479 25.7117711,144.611979 L25.3930211,142.363021 C25.3576045,142.150521 25.1805211,142 24.9680211,142 L21.5680211,142 C21.3555211,142 21.187292,142.150521 21.1518753,142.363021 L20.8331253,144.611979 C20.3107295,144.824479 19.8326045,145.116667 19.3987503,145.444271 L17.2826045,144.594271 C17.0878128,144.523438 16.8664586,144.594271 16.7602086,144.789062 L15.0690628,147.729531 C14.9628128,147.914583 14.9982295,148.144792 15.1753128,148.26875 L16.9727086,149.667708 C16.9284378,149.933333 16.8930211,150.225521 16.8930211,150.5 C16.8930211,150.774479 16.9107295,151.067552 16.9550003,151.332292 L15.1576045,152.73125 C14.9982295,152.856094 14.9539586,153.094271 15.0513545,153.271354 L16.7513545,156.211823 C16.8576045,156.405729 17.0789586,156.468594 17.2737503,156.405729 L19.3898961,155.555729 C19.8326045,155.892188 20.3018753,156.176406 20.8242711,156.388906 L21.1430211,158.637865 C21.187292,158.849479 21.3555211,159 21.5680211,159 L24.9680211,159 C25.1805211,159 25.3576045,158.849479 25.384167,158.637865 L25.702917,156.388906 C26.2253128,156.176406 26.7034378,155.892188 27.137292,155.555729 L29.2534378,156.405729 C29.4482295,156.476562 29.6695836,156.405729 29.7758336,156.211823 L31.4758336,153.271354 C31.5820836,153.077448 31.5378128,152.856094 31.3695836,152.73125 L29.5898961,151.332292 Z" id="Fill-1"></path>
        </g>
    </g>
</svg>

<svg xmlns="http://www.w3.org/2000/svg" width="17" height="17" viewBox="0 0 17 17">
    <g id="PROTOTYPE-—-Valentina" fill="none" fill-rule="evenodd" stroke="none" stroke-width="1">
        <g id="valentina---1st-release-(2)" fill="#9B9B9B" transform="translate(-15 -142)">
            <path id="Fill-1" d="M23.315 154.196a3.706 3.706 0 0 1-3.695-3.696 3.707 3.707 0 0 1 3.695-3.696 3.707 3.707 0 0 1 3.696 3.696 3.706 3.706 0 0 1-3.696 3.696m6.275-2.864q.053-.395.053-.832c0-.282-.018-.567-.062-.832l1.797-1.4a.43.43 0 0 0 .107-.538l-1.7-2.94c-.107-.196-.328-.258-.523-.196l-2.116.85a6.3 6.3 0 0 0-1.434-.832l-.319-2.249a.43.43 0 0 0-.425-.363h-3.4a.42.42 0 0 0-.416.363l-.319 2.249c-.522.212-1 .505-1.434.832l-2.116-.85a.423.423 0 0 0-.523.195l-1.69 2.94c-.107.186-.072.416.105.54l1.798 1.399c-.045.265-.08.558-.08.832s.018.568.062.832l-1.797 1.4a.435.435 0 0 0-.107.54l1.7 2.94a.43.43 0 0 0 .523.194l2.116-.85c.443.336.912.62 1.434.833l.319 2.249a.435.435 0 0 0 .425.362h3.4c.213 0 .39-.15.416-.362l.319-2.25c.522-.212 1-.496 1.434-.832l2.116.85c.195.07.417 0 .523-.194l1.7-2.94a.41.41 0 0 0-.106-.54z"/>
        </g>
    </g>
</svg>
